images_sukapura_svg/cmd/sc_changecasetolower.svg

<svg viewBox="0 0 16 16" xmlns="http://www.w3.org/2000/svg" xmlns:xlink="http://www.w3.org/1999/xlink"><linearGradient id="a" gradientUnits="userSpaceOnUse" x1="12.751377" x2="12.687499" y1="4.062372" y2=".062372"><stop offset="0" stop-color="#0040dd"/><stop offset="1" stop-color="#0a84ff"/></linearGradient><path d="m9.5006882 0a.50043556.50043556 0 0 0 -.353516.8535156l2.9999998 3.0000004a.50043556.50043556 0 0 0 .707032 0l3-3.0000004a.50043556.50043556 0 0 0 -.353516-.8535156z" fill="url(#a)"/><g fill="#4b4b4f"><path d="m5.62972 15.831591q-.080195-.392958-.1283127-.689681-.040098-.304743-.048117-.609486-.441075.625525-1.1548144 1.050561-.7057199.417016-1.5237134.417016-1.355303 0-2.0690424-.689681-.70572009-.6977-.70572009-1.916671 0-1.243029 1.00244299-1.940729 1.0104626-.70572 2.7346646-.70572h1.7161825v-.8580916q0-.7618567-.4651336-1.2029316-.4651336-.4490945-1.3152052-.4490945-.7618567 0-1.2430294.3929577-.4731531.3849381-.4731531.9302671h-1.50767431l-.01603909-.0481173q-.04811726-.9463062.8901694-1.7322215.9463062-.7859153 2.4379414-.7859153 1.4755962 0 2.3737851.7538371.898189.7458176.898189 2.1572574v4.1781825q0 .465134.048117.898189.048117.433055.17643.850072zm-2.6223909-1.154815q.8580912 0 1.547772-.441075.6896808-.441075.898189-1.010462v-1.41144h-1.7723193q-.9543258 0-1.5317329.481173-.5693877.481172-.5693877 1.130755 0 .577408.3608795.914228.3608795.336821 1.0665994.336821z"/><path d="m15.410059 11.821819q0 1.876573-.906208 3.031387-.898189 1.146795-2.478039 1.146795-.858092 0-1.491636-.328801-.6335444-.336821-1.0505604-.986404l-.192469 1.146795h-1.2911466v-12.5104893h1.5798506v4.8598438q.408996-.5774072 1.0104624-.8821499.609486-.3047426 1.419459-.3047426 1.603909 0 2.502098 1.283127.898189 1.2831271.898189 3.376228zm-1.57985-.168411q0-1.491635-.553349-2.4299218-.545329-.9463062-1.668065-.9463062-.729778 0-1.23501.3608795-.4972114.35286-.7939344.9543258v3.7611657q.304742.641564.7939344 1.002444.497212.360879 1.251049.360879 1.114717 0 1.660046-.793935.545329-.793935.545329-2.10112z"/></g></svg>

<?xml version="1.0" encoding="UTF-8" standalone="no"?>
<svg
   xmlns:dc="http://purl.org/dc/elements/1.1/"
   xmlns:cc="http://creativecommons.org/ns#"
   xmlns:rdf="http://www.w3.org/1999/02/22-rdf-syntax-ns#"
   xmlns:svg="http://www.w3.org/2000/svg"
   xmlns="http://www.w3.org/2000/svg"
   xmlns:xlink="http://www.w3.org/1999/xlink"
   xmlns:sodipodi="http://sodipodi.sourceforge.net/DTD/sodipodi-0.dtd"
   xmlns:inkscape="http://www.inkscape.org/namespaces/inkscape"
   viewBox="0 0 16 16"
   version="1.1"
   id="svg8"
   sodipodi:docname="sc_changecasetolower.svg"
   inkscape:version="0.92.3 (2405546, 2018-03-11)">
  <metadata
     id="metadata14">
    <rdf:RDF>
      <cc:Work
         rdf:about="">
        <dc:format>image/svg+xml</dc:format>
        <dc:type
           rdf:resource="http://purl.org/dc/dcmitype/StillImage" />
        <dc:title></dc:title>
      </cc:Work>
    </rdf:RDF>
  </metadata>
  <defs
     id="defs12">
    <linearGradient
       inkscape:collect="always"
       xlink:href="#a-6"
       id="linearGradient859"
       x1="19.750689"
       y1="12.062372"
       x2="19.686811"
       y2="8.0623722"
       gradientUnits="userSpaceOnUse"
       gradientTransform="translate(-6.9993118,-8)" />
    <linearGradient
       gradientTransform="translate(-29.694915,1.220339)"
       id="a-6"
       gradientUnits="userSpaceOnUse"
       x1="14"
       x2="13.79661"
       y1="22"
       y2="2.1355929">
      <stop
         offset="0"
         stop-color="#0040dd"
         id="stop2" />
      <stop
         offset="1"
         stop-color="#0a84ff"
         id="stop4" />
    </linearGradient>
  </defs>
  <sodipodi:namedview
     pagecolor="#ffffff"
     bordercolor="#666666"
     borderopacity="1"
     objecttolerance="10"
     gridtolerance="10"
     guidetolerance="10"
     inkscape:pageopacity="0"
     inkscape:pageshadow="2"
     inkscape:window-width="1366"
     inkscape:window-height="716"
     id="namedview10"
     showgrid="true"
     inkscape:zoom="14.75"
     inkscape:cx="4.9966768"
     inkscape:cy="-1.4487398"
     inkscape:window-x="-8"
     inkscape:window-y="-8"
     inkscape:window-maximized="1"
     inkscape:current-layer="svg8">
    <inkscape:grid
       type="xygrid"
       id="grid821" />
  </sodipodi:namedview>
  <path
     style="fill:url(#linearGradient859);fill-opacity:1;stroke:none;stroke-width:1px;stroke-linecap:butt;stroke-linejoin:miter;stroke-opacity:1"
     d="M 9.5006882,0 A 0.50043556,0.50043556 0 0 0 9.1471722,0.8535156 L 12.147172,3.853516 a 0.50043556,0.50043556 0 0 0 0.707032,0 l 3,-3.0000004 A 0.50043556,0.50043556 0 0 0 15.500688,0 Z"
     id="path834-2"
     inkscape:connector-curvature="0" />
  <path
     inkscape:connector-curvature="0"
     id="path827"
     style="font-style:normal;font-variant:normal;font-weight:normal;font-stretch:normal;font-size:medium;line-height:1.25;font-family:Roboto;-inkscape-font-specification:Roboto;letter-spacing:0px;word-spacing:0px;fill:#4b4b4f;fill-opacity:1;stroke:none;stroke-width:0.41060066"
     d="M 5.62972,15.831591 Q 5.549525,15.438633 5.5014073,15.14191 q -0.040098,-0.304743 -0.048117,-0.609486 -0.441075,0.625525 -1.1548144,1.050561 -0.7057199,0.417016 -1.5237134,0.417016 -1.355303,0 -2.0690424,-0.689681 Q 1.4901161e-8,14.61262 1.4901161e-8,13.393649 1.4901161e-8,12.15062 1.002443,11.45292 2.0129056,10.7472 3.7371076,10.7472 H 5.4532901 V 9.8891084 q 0,-0.7618567 -0.4651336,-1.2029316 Q 4.5230229,8.2370823 3.6729513,8.2370823 2.9110946,8.2370823 2.4299219,8.63004 1.9567688,9.0149781 1.9567688,9.5603071 H 0.44909449 L 0.4330554,9.5121898 Q 0.38493814,8.5658836 1.3232248,7.7799683 2.269531,6.994053 3.7611662,6.994053 q 1.4755962,0 2.3737851,0.7538371 0.898189,0.7458176 0.898189,2.1572574 V 14.08333 q 0,0.465134 0.048117,0.898189 0.048117,0.433055 0.17643,0.850072 z M 3.0073291,14.676776 q 0.8580912,0 1.547772,-0.441075 0.6896808,-0.441075 0.898189,-1.010462 v -1.41144 H 3.6809708 q -0.9543258,0 -1.5317329,0.481173 -0.5693877,0.481172 -0.5693877,1.130755 0,0.577408 0.3608795,0.914228 0.3608795,0.336821 1.0665994,0.336821 z" />
  <path
     inkscape:connector-curvature="0"
     id="path829"
     style="font-style:normal;font-variant:normal;font-weight:normal;font-stretch:normal;font-size:medium;line-height:1.25;font-family:Roboto;-inkscape-font-specification:Roboto;letter-spacing:0px;word-spacing:0px;fill:#4b4b4f;fill-opacity:1;stroke:none;stroke-width:0.41060066"
     d="m 15.410059,11.821819 q 0,1.876573 -0.906208,3.031387 -0.898189,1.146795 -2.478039,1.146795 -0.858092,0 -1.491636,-0.328801 -0.6335444,-0.336821 -1.0505604,-0.986404 l -0.192469,1.146795 H 8 V 3.3211017 H 9.5798506 V 8.1809455 Q 9.9888466,7.6035383 10.590313,7.2987956 11.199799,6.994053 12.009772,6.994053 q 1.603909,0 2.502098,1.283127 0.898189,1.2831271 0.898189,3.376228 z m -1.57985,-0.168411 q 0,-1.491635 -0.553349,-2.4299218 Q 12.731531,8.27718 11.608795,8.27718 q -0.729778,0 -1.23501,0.3608795 -0.4972114,0.35286 -0.7939344,0.9543258 v 3.7611657 q 0.304742,0.641564 0.7939344,1.002444 0.497212,0.360879 1.251049,0.360879 1.114717,0 1.660046,-0.793935 0.545329,-0.793935 0.545329,-2.10112 z" />
</svg>
